img/section4-1-atm.svg

<svg fill="none" height="68" viewBox="0 0 68 68" width="68" xmlns="http://www.w3.org/2000/svg"><g fill="#b5bd00"><path d="m65.0881 43.3479h-16.7188v-5.7803h5.0479c.366-.0203.7103-.18.9622-.4463s.3923-.619.3923-.9855c0-.3666-.1404-.7192-.3923-.9855s-.5962-.426-.9622-.4464h-38.8914c-.366.0204-.7103.1801-.9622.4464-.252.2663-.3923.6189-.3923.9855 0 .3665.1403.7192.3923.9855.2519.2663.5962.426.9622.4463h5.0523v5.7759h-16.71883v-40.48423h62.21563zm-25.376 12.9594v-18.7397h5.7803v16.1187c0 .6951-.2762 1.3618-.7677 1.8533-.4915.4916-1.1582.7677-1.8533.7677zm-17.2836-2.621v-16.1187h14.4331v18.7397h-11.7989c-.6951 0-1.3618-.2761-1.8533-.7677-.4915-.4915-.7677-1.1582-.7677-1.8533zm38.1986 11.4018h-53.31125v-18.8809h12.26225v7.5012c.0081 1.4501.5893 2.8381 1.6167 3.8614 1.0275 1.0233 2.4178 1.5989 3.8679 1.6012h17.8219c1.4539-.0023 2.8476-.5809 3.8757-1.609s1.6067-2.4218 1.609-3.8757v-7.5012h12.2578zm7.3203-20.2973v-43.36117c-.0012-.3788-.1522-.741757-.42-1.009614-.2679-.267857-.6309-.41885223-1.0097-.420016h-65.08807c-.37916 0-.742791.150622-1.0109.41873-.268108.268109-.41873.63174-.41873 1.0109v43.34797c0 .3791.150622.7428.41873 1.0109.268109.2681.63174.4187 1.0109.4187h3.02695v20.2973c-.00234.1892.03291.377.10371.5525s.17574.3352.30873.4698c.13298.1347.29138.2415.46599.3145.17461.0729.36197.1105.5512.1105h56.17489c.3789-.0012.7418-.1522 1.0097-.42.2678-.2679.4188-.6309.42-1.0097v-20.2972h3.0269c.3788-.0012.7418-.1522 1.0097-.4201.2678-.2678.4188-.6308.42-1.0096"/><path d="m45.5056 26.059h-33.87v-14.4243h33.87zm1.4297-17.28361h-36.7293c-.3788.00116-.74176.15216-1.00962.42002-.26785.26785-.41885.63081-.42001 1.00959v17.2836c0 .3796.15048.7437.41846 1.0125s.6316.4204 1.01117.4216h36.7293c.3799-.0012.744-.1527 1.0127-.4214.2687-.2686.4201-.6327.4213-1.0127v-17.2836c-.0012-.37954-.1528-.74316-.4216-1.01115-.2688-.26798-.6329-.41846-1.0124-.41846z"/><path d="m57.7368 8.77564h-2.1401c-.366.02033-.7103.18004-.9622.44633-.2519.2663-.3923.61895-.3923.98553 0 .3666.1404.7192.3923.9855s.5962.426.9622.4463h2.1577c.1947.0108.3896-.0182.5727-.0852.1831-.0671.3507-.1708.4923-.3049.1417-.134.2546-.2955.3317-.4746s.1169-.3721.1169-.5671-.0398-.388-.1169-.56712-.19-.34063-.3317-.47465c-.1416-.13402-.3092-.23774-.4923-.30481s-.378-.09609-.5727-.08528"/><path d="m57.7367 17.4209h-2.14c-.3815 0-.7474.1516-1.0172.4213-.2697.2698-.4213.6357-.4213 1.0172s.1516.7473.4213 1.0171c.2698.2698.6357.4213 1.0172.4213h2.1577c.3791 0 .7428-.1506 1.0109-.4187s.4187-.6318.4187-1.0109c0-.3792-.1506-.7428-.4187-1.0109s-.6318-.4188-1.0109-.4188"/><path d="m57.7367 26.0654h-2.1401c-.3791 0-.7428.1507-1.0109.4188s-.4187.6317-.4187 1.0109c0 .3791.1506.7428.4187 1.0109s.6318.4187 1.0109.4187h2.1577c.3792 0 .7428-.1506 1.0109-.4187s.4188-.6318.4188-1.0109c0-.3792-.1507-.7428-.4188-1.0109s-.6317-.4188-1.0109-.4188"/></g></svg>

<svg width="68" height="68" viewBox="0 0 68 68" fill="none" xmlns="http://www.w3.org/2000/svg">
<path d="M65.0881 43.3479H48.3693V37.5676H53.4172C53.7832 37.5473 54.1275 37.3876 54.3794 37.1213C54.6313 36.855 54.7717 36.5023 54.7717 36.1358C54.7717 35.7692 54.6313 35.4166 54.3794 35.1503C54.1275 34.884 53.7832 34.7243 53.4172 34.7039H14.5258C14.1598 34.7243 13.8155 34.884 13.5636 35.1503C13.3116 35.4166 13.1713 35.7692 13.1713 36.1358C13.1713 36.5023 13.3116 36.855 13.5636 37.1213C13.8155 37.3876 14.1598 37.5473 14.5258 37.5676H19.5781V43.3435H2.85927V2.85927H65.0749L65.0881 43.3479ZM39.7121 56.3073V37.5676H45.4924V53.6863C45.4924 54.3814 45.2162 55.0481 44.7247 55.5396C44.2332 56.0312 43.5665 56.3073 42.8714 56.3073H39.7121ZM22.4285 53.6863V37.5676H36.8616V56.3073H25.0627C24.3676 56.3073 23.7009 56.0312 23.2094 55.5396C22.7179 55.0481 22.4417 54.3814 22.4417 53.6863H22.4285ZM60.6271 65.0881H7.31585V46.2072H19.5781V53.7084C19.5862 55.1585 20.1674 56.5465 21.1948 57.5698C22.2223 58.5931 23.6126 59.1687 25.0627 59.171H42.8846C44.3385 59.1687 45.7322 58.5901 46.7603 57.562C47.7884 56.5339 48.367 55.1402 48.3693 53.6863V46.1851H60.6271V65.0881ZM67.9474 44.7908V1.42963C67.9462 1.05083 67.7952 0.687873 67.5274 0.420016C67.2595 0.152159 66.8965 0.00116377 66.5177 0L1.42963 0C1.05047 0 0.686839 0.150622 0.41873 0.41873C0.150622 0.686839 0 1.05047 0 1.42963L0 44.7776C0 45.1567 0.150622 45.5204 0.41873 45.7885C0.686839 46.0566 1.05047 46.2072 1.42963 46.2072H4.45658V66.5045C4.45424 66.6937 4.48949 66.8815 4.56029 67.057C4.63109 67.2325 4.73603 67.3922 4.86902 67.5268C5.002 67.6615 5.1604 67.7683 5.33501 67.8413C5.50962 67.9142 5.69698 67.9518 5.88621 67.9518H62.0611C62.44 67.9506 62.8029 67.7996 63.0708 67.5318C63.3386 67.2639 63.4896 66.9009 63.4908 66.5221V46.2249H66.5177C66.8965 46.2237 67.2595 46.0727 67.5274 45.8048C67.7952 45.537 67.9462 45.174 67.9474 44.7952" fill="#B5BD00"/>
<path d="M45.5056 26.059H11.6356V11.6347H45.5056V26.059ZM46.9353 8.77539H10.206C9.8272 8.77655 9.46424 8.92755 9.19638 9.19541C8.92853 9.46326 8.77753 9.82622 8.77637 10.205V27.4886C8.77637 27.8682 8.92685 28.2323 9.19483 28.5011C9.46281 28.7699 9.82643 28.9215 10.206 28.9227H46.9353C47.3152 28.9215 47.6793 28.77 47.948 28.5013C48.2167 28.2327 48.3681 27.8686 48.3693 27.4886V10.205C48.3681 9.82546 48.2165 9.46184 47.9477 9.19385C47.6789 8.92587 47.3148 8.77539 46.9353 8.77539Z" fill="#B5BD00"/>
<path d="M57.7368 8.77564H55.5967C55.2307 8.79597 54.8864 8.95568 54.6345 9.22197C54.3826 9.48827 54.2422 9.84092 54.2422 10.2075C54.2422 10.5741 54.3826 10.9267 54.6345 11.193C54.8864 11.4593 55.2307 11.619 55.5967 11.6393H57.7544C57.9491 11.6501 58.144 11.6211 58.3271 11.5541C58.5102 11.487 58.6778 11.3833 58.8194 11.2492C58.9611 11.1152 59.074 10.9537 59.1511 10.7746C59.2282 10.5955 59.268 10.4025 59.268 10.2075C59.268 10.0125 59.2282 9.8195 59.1511 9.64038C59.074 9.46126 58.9611 9.29975 58.8194 9.16573C58.6778 9.03171 58.5102 8.92799 58.3271 8.86092C58.144 8.79385 57.9491 8.76483 57.7544 8.77564" fill="#B5BD00"/>
<path d="M57.7367 17.4209H55.5967C55.2152 17.4209 54.8493 17.5725 54.5795 17.8422C54.3098 18.112 54.1582 18.4779 54.1582 18.8594C54.1582 19.2409 54.3098 19.6067 54.5795 19.8765C54.8493 20.1463 55.2152 20.2978 55.5967 20.2978H57.7544C58.1335 20.2978 58.4972 20.1472 58.7653 19.8791C59.0334 19.611 59.184 19.2473 59.184 18.8682C59.184 18.489 59.0334 18.1254 58.7653 17.8573C58.4972 17.5892 58.1335 17.4385 57.7544 17.4385" fill="#B5BD00"/>
<path d="M57.7367 26.0654H55.5966C55.2175 26.0654 54.8538 26.2161 54.5857 26.4842C54.3176 26.7523 54.167 27.1159 54.167 27.4951C54.167 27.8742 54.3176 28.2379 54.5857 28.506C54.8538 28.7741 55.2175 28.9247 55.5966 28.9247H57.7543C58.1335 28.9247 58.4971 28.7741 58.7652 28.506C59.0333 28.2379 59.184 27.8742 59.184 27.4951C59.184 27.1159 59.0333 26.7523 58.7652 26.4842C58.4971 26.2161 58.1335 26.0654 57.7543 26.0654" fill="#B5BD00"/>
</svg>
